X:167
U: ~ = !turn!
%%topmargin 3cm
T:Piper's Chair
B:Traditional Irish Fiddle Tunes. Randy Miller and Jack Perron.
Z:Transcribed by Ralph Palmer
R:Jig
M:6/8
L:1/8
K:G
DGG GFD | Dcc {/d}cBc | ded e/2B/2AG | FAG FED |
DGG {/A}GFD | Dcc {/d}cBc | ded {/d}cAF | [1 AGF G2F :| [2 AGF GBd ||
|:~g3 agf | d2 g {/a}gfg | GFG ~=g3 | A2 B cBA |
GBd g2g | d2 e fdc | B/2c/2dB {/d}cAF | [1 {/B}AGF GBd :| [2 AGF G2 F ||
